X: 22529
T: Lady Gordon's
R: reel
M: 4/4
K: Dmajor
FEDF A3B|defd ~e2dB|BAFB ABdf|1 afge fddA:|2 afge fddc||
d2fd Adfd|defd BdAB|defd Adfg|afeg fddc|
defg afbf|afed Beef|dBAF A2FB|ABde faa2||

